X:1
T:Sancta Maria succurre
T:Ivo de Vento
T:Source : Liber mottetorum 4 vocum---Monacii--A.Berg---1571. Editor : André Vierendeels (22/04/14).
T:Sancta Maria succurre
C:Ivo de Vento
%%score [ 1 [ 2 3 ] 4 ]
L:1/8
Q:1/4=90
M:2/2
K:F
V:1 treble nm="Soprano" snm="S"
V:2 treble-8 nm="Tenor 1" snm="T 1"
V:3 treble-8 nm="Tenor 2" snm="T 2"
V:4 bass nm="Bass" snm="B"
V:1
 z8 | z4 z2 c2 | c2 c2 B4 | c2 G2 G2 A2 | B3 A G2 G2 | A4 F4 | G6 G2 | A4 G2 D2 | G4 C2 c2- | %9
w: |San-|cta Ma- ri-|a suc- cur- re|mi- * * se-|ris, san-|cta Ma-|ri- a suc-|cur- re mi-|
 cB AG A2 B2 | c2 c2 A4 | G4 z2 G2- | GF F4 E2 | F4 z4 | z2 F4 F2 | E3 F GE A2- | A2 F2 F2 G2 | %17
w: * * * * * se-|ris, suc- cur-|re mi-|* * * se-|ris,|iu- va|pu- * * * *|* sil- la- ni-|
 F2 F2 c2 A2 | G2 c3 A d2- | dc c4 B2 | c4 z4 | z2 C2 F4- | F2 E2 F2 G2 | FG AF G2 G2 | %24
w: mes, iu- va pu-|sil- la- * *|* * * ni-|mes,|re- fo-|* ve fle- bi-|les, _ _ _ _ re-|
 A2 A2 F2 G2 | A4 z4 | z2 G2 G2 A2 | G2 E2 A4 | z4 z2 c2- | c2 c2 d4 | A2 c2 BA GF | G2 A2 z4 | %32
w: fo- ve fle- bi-|les,|o- ra pro|po- pu- lo,|in-|* ter- ve-|ni pro cle- * * *|* ro,|
 z8 | z4 z2 F2- | F2 F2 G4 | E2 F2 FE ED/C/ | D4 E2 E2- | E2 E2 F4 | F2 F4 F2 | D4 C4 | C4 z4 | %41
w: |in-|* ter- ve-|ni pro cle- * * * *|* ro, in-|* ter- ce-|de pro de-|vo- *|to,|
 z2 c2 c2 B2 | A3 B c2 B2 | A4 G4 | A2 A2 G3 F | E2 E2 F4 | z2 G2 G2 F2 | E3 D E2 F2- | FE DC D4 | %49
w: foe- min- co|_ _ _ se-|xu, foe-|min- co _ _|_ se- xu,|foe- min- co|_ _ _ se-||
 E2 E2 G3 G | A4 B4 | A4 z2 c2 | c2 A2 A2 cB | AG F2 E4- | E8 || z8 | z4 c4- | c2 G2 B2 A2 | %58
w: xu, foe- min- co|_ se-|xu, foe-|min- co se- * *|* * * xu.|_||Sen-|* ti- ant o-|
 G2 C2 G2 G2 | FE DC D4 | F2 F2 A2 G2- | G2 F3 E/D/ E2 | F2 A2 GA Bc | d2 c3 B/A/ B2 | c3 B AB c2 | %65
w: mnes tu- um le-|va- * * * *|men, sen- ti- ant|_ o- * * *|mnes tu- um _ _ _|_ le- * * *|va- * * * *|
 d4 z2 c2- | c2 G2 B2 A2 | G4 A4- | A2 G4 F2 | G3 A Bc d2- | dc c3 B/A/ B2 | c4 z2 C2 | %72
w: men,- sen-|* ti- ant o-|mnes tu-|* um le-|va- * * * *||men, qui-|
 F2 E2 D2 D2 | C8 | z2 F2 B3 A | G2 F2 G2 G2 | A2 A2 A2 A2 | F3 E A2 A2 | G2 G4 c2- | %79
w: cum- que ce- le|brant,|qui- cum- *|* que ce- le|brant, qui- cum- que|ce- * * le-|brant, qui- cum-|
 cB A2 G2 F2- | F2 E2 F4 | z8 | z4 z2 C2 | C2 C2 D2 F2 | E3 D/C/ DE F2 | E2 F3 E/D/ E2 | %86
w: * * * que ce-|* le- brant||tu-|am com- me- mo-|ran- * * * * *|ti- o- * * *|
 F2 A2 G2 A2 | BA/G/ AB c2 C2 | F3 E D2 E2 | D4 C4 | z2 F2 F2 F2 | G2 B2 A3 B | c2 A2 G3 F | %93
w: nem, tu- um com-|me- * * * * * mo-|ra- * * ti-|o- nem,|tu- um com-|me- mo- ra- *|* ti- o- *|
 A4 G2 G2 | G2 G2 A2 c2 | B3 A G2 F2 | ED G3 F F2- | FE/D/ E2 F4- | F8 |] %99
w: * nem, tu-|um com- me- mo-|ra- * * ti-|o- * * * *|* * * * nem.|_|
V:2
 c4 c2 c2 | B4 c4 | z2 f2 g2 g2 | f2 ed e3 c | de f4 e2 | f2 f2 d2 c2 | d4 B2 B2 | f2 f2 d3 d | %8
w: San- cta Ma-|ri- a|suc- cur- re|mi- * * * *|* * * se-|ris, san- cta Ma-|ri- a suc-|cur- re mi- se-|
 e4 z4 | z2 f2 f2 f2 | e4 f2 c2 | _e6 e2 | d2 d2 c4- | c4 z2 c2- | c2 c2 A2 B2 | c3 d e2 f2 | %16
w: ris,|san- cta Ma-|ri- a suc-|cur re|mi- se- ris,|_ iu-|* va pu- sil-|la- * * ni-|
 c4 z2 c2- | c2 c2 AB cd | e2 e2 f2 ed | e2 c2 d2 d2 | f2 ed f2 e2 | dc c4 B2 | c2 c2 d4 | %23
w: mes, iu|_ va pu- * * *|* sil- la- * *|* ni- mes, re-|fo- * * * ve|fle- * * bi-|les, re- fo-|
 d2 f4 e2 | f2 c2 A2 G2 | cF f3 e dc | d3 d e4 | z2 c2 c2 d2 | c2 B2 c4 | z2 f4 g2 | f4 d2 e2 | %31
w: ve fle- bi-|les, re- fo- ve|fle- * * * * *|* bi- les,|o- ra pro|po- pu- lo,|in- ter-|ve- ni pro|
 e2 f2 z4 | z2 f4 f2 | g4 f4 | d4 d2 e2 | c2 c2 dc c2- | cB/A/ B2 c4 | c4 d2 d2 | c4 c2 F2 | %39
w: cle- ro,|in- ter-|ve- ni,|in- ter- ve-|ni pro cle- * *|* * * * ro,|in- ter- ce-|de pro de-|
 B3 A G4 | A4 z4 | z4 f4 | f2 c2 c2 d2 | f2 f2 e2 d2 | e2 f2 d4 | z2 c2 c2 B2 | A2 G2 c2 c2 | %47
w: vo- * *|to,|foe-|min- co se- xu,|foe- min- * *|co se- xu,|foe- min- *|co se- xu, foe-|
 c2 G2 c2 d2- | dc c3 B/A/ B2 | c4 z2 d2 | d2 c2 B2 G2 | c4 c4 | c2 f2 f4 | c4 c4- | c8 || f6 c2 | %56
w: min- * co se-||xu, foe-|min- * co se-|xu, foe-|min- * co|se- xu.|_|Sen- ti-|
 _e2 d2 c2 f2 | _ed ef g2 f2 | _e3 d ec d2- | dc c3 B/A/ B2 | c4 z2 _e2- | e2 B2 c2 c2 | %62
w: ant o- mnes tu-|um _ _ _ _ le-|va- * * * *||me, sen-|* ti- ant o-|
 A2 f2 e2 g2 | fe dc d4 | c2 e2 f2 g2- | g2 f3 e/d/ e2 | cd ef g2 f2- | fe/d/ e2 f2 c2- | %68
w: mnes tu- um le-|va- * * * *|men, sen- ti- ant|_ o- * * *|mnes _ _ _ _ tu-|* * * * um le-|
 cd _e2 BG d2 | _e2 d2 g2 a2 | a2 gf g4 | e4 c4 | B2 c2 A2 B2 | G4 A4 | d3 c B2 d2 | ec f4 e2 | %76
w: * * * va- * *|men, tu- um le-|va- * * *|men, qui-|cum- que ce- le|brant,, qui-|cum- * * que|ce- * * le-|
 f2 c2 f3 e | d2 c2 dc c2- |"^-natural" c2 B2 c2 e2 | e2 f2 d2 cB | c2 c2 A2 c2 | c2 c2 d2 f2 | %82
w: brant, qui- cum- *|* que ce- * *|* le- brant, qui-|cum- que ce- * *|* le- brant tu-|um com- me- mo-|
 e2 d2 c3 B | AB c3 B/A/ B2 | c4 z4 | z8 | z2 c2 c2 c2 | d2 f2 e3 d/c/ | d2 A2 BG c2- | %89
w: ra- ti- o- *||nem,||tu- um com-|me- mo- ra- * *|* ti- o- * *|
 cB/A/ B2 c2 G2 | d2 B2 d2 c2 | B2 G2 c4 | c2 f2 d2 d2 | e2 f2 e2 d2 | e4 f2 c2 | f2 f2 d4 | %96
w: * * * * nem, tu-|um com- me- mo-|ra- ti- o-|nem, tu- um com-|me- mo- ra- ti-|o- nem, tu-|um com- me-|
 c4 d2 d2 | c4 A4- | A8 |] %99
w: mo- ra- ti-|o- nem.|_|
V:3
 z8 | z8 | z8 | z2 c2 c2 c2 | B4 c4 | z2 F2 B2 A2 | B3 c d_e d2- | dc c4 B2 | c2 c2 A2 G2 | %9
w: |||San- cta Ma-|ri- a|suc- cur- re|mi- * * * *|* * * se-|ris, san- cta Ma-|
 A4 F2 F2 | A2 G2 F3 F | c2 c2 G2 G2 | B3 A G4 | A2 A2 A2 G2 | A3 B c2 d2 | G2 c4 c2 | %16
w: ri- a suc-|cur- re mi- se-|ris, san- cta Ma-|r- * *|a suc- cur- re|mi- * * se-|ris, iu- va|
 A2 A2 B2 G2 | A4 z2 c2- | c2 c2 A2 B2 | c2 A2 G4 | z2 A2 c2 B2 | A3 G F2 F2 | G2 G2 B4- | %23
w: pu- sil- la- ni-|mes, iu-|* va pu- sil-|la- ni- mes,|re- fo- ve|fle- * * bi-|les, re- fo-|
 B2 A2 B2 c2 | c2 F2 c4 | A2 d3 c c2- | c2 B2 c4- | c4 z2 A2 | A2 B2 A2 G2 | A4 z4 | z4 z2 c2- | %31
w: * ve fle- bi-|les, re- fo-|ve fle- * *|* bi- les,|_ o-|ra pro po- pu-|lo,|in-|
 c2 c2 d4 | A2 c2 BA d2- | dc/B/ c2 d4 | z2 B4 G2 | A4 F2 A2 | G4 G4 | G4 B2 B2 | A4 A4 | %39
w: * ter- ve-|ni pro cle- * *|* * * * ro,|in- ter-|ve- ni pro|cle- ro,|in- ter- ce-|de pro|
 G2 F3 E/D/ E2 | F4 c4 | B2 A2 c2 d2 | c2 A2 A2 G2 | FG AB c2 d2- | dc c3 B/A/ B2 | c2 G2 C2 D2 | %46
w: de- vo- * * *|to, foe-|min- * co se-|xu, foe min- *|co _ _ _ _ se-||xu, foe- min- *|
 E3 F G2 A2 | G2 c2 c2 B2 | A2 c2 G2 G2 | G2 G2 E2 G2- | GF F3 E/D/ E2 | F2 A2 A2 G2 | A2 c3 B AG | %53
w: co _ _ se-|xu, foe- min- *|co se- xu, foe-|min- co se- *||xu, foe- min- *|co se- * * *|
 FG A2 G4- | G8 || z8 | z8 | z8 | c6 G2 | B2 A2 G2 G2 | AG AB c2 c2 | BA GF G4 | F4 z4 | z8 | %64
w: * * * xu.|_||||Sen- ti-|ant o- mnes tu-|um _ _ _ _ le-|va- * * * *|men,||
 z2 c4 G2 | BA AG/F/ G2 G2 | A2 c2 G2 A2 | c4 F4 | c3 c G2 A2 | c2 B2 d2 f2 | fe dc d4 | c2 c2 A4 | %72
w: sen- ti-|ant _ _ _ _ _ o-|mnes tu- um le-|va- men,|sen- ti- ant o-|mnes tu- um le-|va- * * * *|men, qui- cum-|
 F2 G3 F F2- | F2 E2 F2 F2 | B3 A G2 B2 | c2 d2 c4- | c4 z4 | z2 C2 F3 E | D4 E2 G2 | A2 c2 BA GF | %80
w: que ce- * *|* le- brant, qui-|cum- * * que|ce- le- brant,|_|qui- cum- *|* que, qui-|cum- que ce- * * *|
 G2 G2 F3 G | A8 | z8 | F4 F2 F2 | G2 A2 Bc dB | c2 A2 G4 | F4 z2 F2 | F2 F2 G2 A2 | B2 F2 G4 | %89
w: * le- brant, _|_||tu- um com-|me- mo- ra- * * *|* ti- o-|nem, tu-|um com- me- mo-|ra- ti- o-|
 G4 E4 | F2 D4 F2- | F2 E2 F3 G | AB c2 B2 d2- | dc c3 B/A/ B2 | c2 c2 F2 A2 | d3 c B3 A | %96
w: nem, tu-|um com- me-|* mo- ra- *|* * * ti- o-||nem, tu- um com-|me- * * *|
 G2 G2 A2 B2 | G4 F4- | F8 |] %99
w: * mo- ra- ti-|o- nem.|_|
V:4
 z8 | z8 | z8 | z8 | z8 | z8 | G,4 G,2 G,2 | F,4 G,4 | z2 C,2 F,2 E,2 | F,3 E, D,2 D,2 | C,4 z4 | %11
w: ||||||San- cta Ma-|ri- a|suc- cur- re|mi- * * se-|ris,|
 z2 C,2 C,2 C,2 | B,,4 C,2 C,2 | F,6 E,2 | F,6 D,2 | C,4 z2 F,2- | F,2 F,2 D,2 E,2 | F,6 F,2 | %18
w: san- cta Ma-|ri- a suc-|cur- re|mi- se-|ris, iu-|* va pu- sil-|la- ni-|
 C,4 z4 | z4 z2 G,2 | A,6 G,2 | F,3 E, D,2 D,2 | C,4 z4 | z4 z2 C,2 | F,6 E,2 | F,3 G, A,2 A,2 | %26
w: mes,|re-|fo- ve|fle- * * bi-|les,|re-|fo- ve|fle- * * bi-|
 G,4 z4 | z4 F,4 | F,2 G,2 F,2 E,2 | F,4 z4 | z8 | z2 F,4 G,2 | F,4 D,2 F,2 | _E,4 D,4 | z8 | z8 | %36
w: les,|o-|ra pro po- pu-|lo,||in- ter-|ve- ni pro|cle- ro,|||
 z4 C,4- | C,2 C,2 B,,4 | F,2 F,4 D,2 | B,,4 C,4 | F,,2 F,2 F,2 E,2 | D,E, F,G, A,2 B,2 | F,4 z4 | %43
w: in-|* ter- ce-|de pro de-|vo- *|to, foe- min- *|co _ _ _ _ se-|xu,|
 z2 C2 C2 B,2 | A,2 F,2 G,4 | C,4 A,,2 B,,2 | C,3 D, E,2 F,2 | C,4 z4 | z8 | %49
w: foe- min- *|co se- xu,|foe- min- *|co _ _ se-|xu,||
"^SECUNDA\n    PARS" C,4 C,2 B,,2 | A,,4 G,,4 | F,,2 F,2 F,2 E,2 | F,4 F,,4- | F,,4 C,4- | C,8 || %55
w: foe- min- *|co se-|xu, foe- min- *|co se-|* xu.|_|
 z8 | z8 | z8 | z8 | z8 | F,6 C,2 | _E,2 D,2 C,4 | z2 C4 G,2 | B,2 A,2 G,2 G,2 | A,3 G, F,2 E,2 | %65
w: |||||Sen- ti-|ant o- mnes,|sen- ti-|ant o- mnes tu-|um _ _ le-|
 D,4 C,4 | z8 | z4 z2 F,2- | F,2 C,2 _E,2 D,2 | C,2 G,2 G,2 F,2 | A,4 G,4 | C,2 C,2 F,3 E, | %72
w: va- men,||sen-|* ti- ant o-|mnes tu- um le-|va- *|me, qui- cum- *|
 D,2 C,2 D,2 B,,2 | C,4 z4 | z8 | z4 z2 C,2 | F,3 E, D,2 A,,2 | B,,2 A,,2 F,,4 | G,,4 C,3 B,, | %79
w: * que ce- le-|brant,||qui|cum- * * que|ce- le- brant,|qui- cum- *|
 A,,2 F,,2 B,,2 D,2 | C,4 z4 | F,4 F,2 F,2 | G,2 B,2 A,3 G, | F,2 E,2 D,4 | C,4 z4 | C,4 C,2 C,2 | %86
w: * que ce- le-|brant,|tu- um com-|me- mo- ra- *|* ti- o-|nem,|tu- um com-|
 D,2 F,2 E,2 F,2 | D,4 C,4 | z4 G,,4 | G,,2 G,,2 A,,2 C,2 | B,,6 A,,2 | G,,4 F,,2 F,2 | %92
w: me- mo- ra- ti-|o- nem,|tu-|um com- me- mo-|ra- ti-|o- nem, tu-|
 F,2 F,2 G,2 B,2 | A,2 F,2 G,4 | C,4 z4 | z2 B,,2 B,,2 B,,2 | C,2 _E,2 D,2 B,,2 | C,4 F,,4- | %98
w: um com- me- mo-|ra- ti- o-|nem,|tu- um com-|me- mo- ra- ti-|o- nem.|
 F,,8 |] %99
w: _|

